X: 1
T:N°86
N:page 106
S:Manuscrit Wandembrile (1778), Archives de l'Etat à Namur
Z:ABC transcription Olivier VIENNE troubadourwallon@gmail.com
K:Gmaj
M:2/4
L:1/8
d>cBd|cB AG|d>cBd|cB AG|B2 BA/2B/2|c2 cB/2c/2|dd e/2d/2c/2B/2|A4:|
|:A>BcA|BcdB|A>BcA|BcdB|e2 e2|de/2f/2 gc|B2 d/2c/2B/2A/2|G4:|]





